X:1
T:Descobridor dos Setes Mares
M:4/4
K:C
[L:1/8] z2 A G A G A G | d2 c2 z A A c | e e e e d c A G | A2 z2 z22 | z A A G A G A G | d2 c2 z A A c | e e e e d c A G | A2 z2 z22 |  z2 c2 A2 G2 | g222 | z g g g a g f e | e2 A2 c2 d2 | e2 d2 c2 A2 |  G222 | z g g g a g f e | e2 A2 c2 d2 | e2 d2 c2 A2 |  c222 |